shared/images/iconfont/kb-iconfont-trash-16.svg

<?xml version="1.0" encoding="UTF-8"?>
<svg width="16px" height="16px" viewBox="0 0 16 16" version="1.1" xmlns="http://www.w3.org/2000/svg" xmlns:xlink="http://www.w3.org/1999/xlink">
    <!-- Generator: sketchtool 49.2 (51160) - http://www.bohemiancoding.com/sketch -->
    <title>55153A8E-899D-4905-9CE5-8EE51BA664B5</title>
    <desc>Created with sketchtool.</desc>
    <defs></defs>
    <g id="Colors,-icons" stroke="none" stroke-width="1" fill="none" fill-rule="evenodd">
        <g id="Icons-2" transform="translate(-462.000000, -454.000000)">
            <g id="kb-iconfont-trash-16" transform="translate(462.000000, 454.000000)">
                <g id="Group-18">
                    <rect id="icon-area-copy" x="0" y="0" width="16" height="16"></rect>
                    <path d="M3.3,5 L2.754,5 C2.3375773,5 2,4.5078885 2,4.01665544 C2,3.52542239 2.3375773,3.0548265 2.754,3.0548265 L3.976,3.0548265 L3.976,2.00950713 C3.976,0.899686985 4.9887319,0 6.238,0 L10.762,0 C12.0112681,0 13.024,0.899686985 13.024,2.00950713 L13.024,3.0548265 L14.246,3.0548265 C14.6624227,3.0548265 15,3.53530175 15,4.01665544 C15,4.49800914 14.6624227,5 14.246,5 L13.7,5 L13.1915556,12.9424984 C13.1548322,13.5373126 12.6480715,14.0010716 12.036,13.9999981 L4.964,13.9999981 C4.35192851,14.0010716 3.8451678,13.5373126 3.80844444,12.9424984 L3.3,5 Z M11.516,3.00582419 L11.516,2.315348 C11.516,1.93400853 11.1784227,1.62487181 10.762,1.62487181 L6.238,1.62487181 C5.8215773,1.62487181 5.484,1.93400853 5.484,2.315348 L5.484,3.00582419 L11.516,3.00582419 Z" id="Combined-Shape" fill="#000000" fill-rule="nonzero"></path>
                </g>
            </g>
        </g>
    </g>
</svg>

<svg xmlns="http://www.w3.org/2000/svg" width="16" height="16" viewBox="0 0 16 16">
    <g fill="none" fill-rule="evenodd">
        <path d="M0 0h16v16H0z"/>
        <path fill="#000" fill-rule="nonzero" d="M3.3 5h-.546C2.338 5 2 4.508 2 4.017c0-.492.338-.962.754-.962h1.222V2.01C3.976.9 4.989 0 6.238 0h4.524c1.25 0 2.262.9 2.262 2.01v1.045h1.222c.416 0 .754.48.754.962 0 .481-.338.983-.754.983H13.7l-.508 7.942c-.037.595-.544 1.06-1.156 1.058H4.964c-.612.001-1.119-.463-1.156-1.058L3.3 5zm8.216-1.994v-.69c0-.382-.338-.691-.754-.691H6.238c-.416 0-.754.309-.754.69v.69h6.032z"/>
    </g>
</svg>
